source/img/logo-footer.svg

<svg width="145" height="40" viewBox="0 0 145 40" fill="none" xmlns="http://www.w3.org/2000/svg">
<path fill-rule="evenodd" clip-rule="evenodd" d="M53.8917 6.58616L58.9302 27.7312C59.0013 27.9491 59.0184 28.1815 58.98 28.4078C58.9417 28.6341 58.849 28.8472 58.7102 29.0284C58.5715 29.2096 58.3909 29.3532 58.1845 29.4465C57.978 29.5398 57.7522 29.58 57.5268 29.5635H53.5201C52.8298 35.3747 47.9494 39.8784 42.0315 39.8784C36.1136 39.8784 31.2332 35.3747 30.543 29.5635H28.5778C27.8869 35.442 22.9527 40 16.9685 40C10.9742 40 6.0335 35.4266 5.35571 29.5337H1.45014C1.22961 29.5445 1.00974 29.5014 0.808914 29.4082C0.608085 29.315 0.432119 29.1743 0.295711 28.9979C0.159304 28.8214 0.0664152 28.6144 0.0248022 28.3941C-0.0168108 28.1737 -0.00593994 27.9464 0.0565069 27.7312L5.10477 6.58616C5.45562 4.25872 7.63865 0 13.4861 0C13.8738 0 14.2456 0.156518 14.5197 0.435122C14.7939 0.713727 14.9479 1.0916 14.9479 1.4856C14.9479 1.87961 14.7939 2.25748 14.5197 2.53608C14.2456 2.81468 13.8738 2.9712 13.4861 2.9712C8.7789 2.9712 8.04797 6.6654 7.9895 7.07146L3.3408 26.6022H5.37467C6.12089 20.7847 11.0272 16.2918 16.9685 16.2918C22.9066 16.2918 27.8107 20.7798 28.5611 26.5926L30.5587 26.6017C31.3043 20.8518 36.1567 16.4134 42.0315 16.4134C47.9178 16.4134 52.7776 20.8691 53.5086 26.6353V26.5824H55.6459L51.007 7.07146C50.9387 6.6654 50.237 2.9712 45.5104 2.9712C45.1227 2.9712 44.7509 2.81468 44.4767 2.53608C44.2026 2.25748 44.0485 1.87961 44.0485 1.4856C44.0485 1.0916 44.2026 0.713727 44.4767 0.435122C44.7509 0.156518 45.1227 0 45.5104 0C51.3578 0 53.5408 4.25872 53.8917 6.58616ZM25.6722 29.5635C25.7448 29.1018 25.7825 28.6283 25.7825 28.1459C25.7825 27.6164 25.7371 27.0977 25.65 26.5935C24.9252 22.3982 21.3141 19.2097 16.9685 19.2097C12.6203 19.2097 9.00753 22.402 8.28571 26.601C8.19945 27.1028 8.15447 27.619 8.15447 28.1459C8.15447 28.6205 8.19096 29.0864 8.26125 29.541C8.92191 33.8136 12.5687 37.0821 16.9685 37.0821C21.3605 37.0821 25.0023 33.8251 25.6722 29.5635ZM50.6138 29.5635C50.6874 29.102 50.7256 28.6285 50.7256 28.1459C50.7256 23.2777 46.8331 19.3313 42.0315 19.3313C37.2299 19.3313 33.3374 23.2777 33.3374 28.1459C33.3374 28.6285 33.3756 29.102 33.4492 29.5635C34.118 33.7577 37.7058 36.9605 42.0315 36.9605C46.3572 36.9605 49.945 33.7577 50.6138 29.5635Z" fill="#D22856"/>
<path d="M71.005 18.5486C71.0049 18.2125 71.1358 17.8898 71.3697 17.6494C71.6037 17.409 71.922 17.2701 72.2568 17.2623H79.39C84.4469 17.2623 87.7751 19.9645 87.7751 24.3918V24.4516C87.7751 29.2977 83.7415 31.8105 78.9727 31.8105H73.5384V38.611C73.5539 38.7874 73.5328 38.9651 73.4762 39.1329C73.4196 39.3006 73.3289 39.4547 73.2097 39.5854C73.0906 39.716 72.9457 39.8204 72.7842 39.8918C72.6227 39.9631 72.4481 40 72.2717 40C72.0952 40 71.9207 39.9631 71.7592 39.8918C71.5977 39.8204 71.4527 39.716 71.3336 39.5854C71.2145 39.4547 71.1237 39.3006 71.0671 39.1329C71.0106 38.9651 70.9894 38.7874 71.005 38.611V18.5486ZM79.0721 29.5171C82.7778 29.5171 85.2119 27.5228 85.2119 24.5314V24.4716C85.2119 21.2608 82.8175 19.5956 79.2509 19.5956H73.588V29.4772L79.0721 29.5171Z" fill="#283645"/>
<path d="M92.5935 18.389C92.5779 18.2126 92.5991 18.0349 92.6556 17.8671C92.7122 17.6994 92.803 17.5452 92.9221 17.4146C93.0412 17.2839 93.1862 17.1796 93.3477 17.1082C93.5092 17.0369 93.6837 17 93.8602 17C94.0366 17 94.2112 17.0369 94.3727 17.1082C94.5342 17.1796 94.6791 17.2839 94.7982 17.4146C94.9174 17.5452 95.0081 17.6994 95.0647 17.8671C95.1213 18.0349 95.1425 18.2126 95.1269 18.389V38.611C95.1425 38.7874 95.1213 38.9651 95.0647 39.1329C95.0081 39.3006 94.9174 39.4548 94.7982 39.5854C94.6791 39.7161 94.5342 39.8204 94.3727 39.8918C94.2112 39.9631 94.0366 40 93.8602 40C93.6837 40 93.5092 39.9631 93.3477 39.8918C93.1862 39.8204 93.0412 39.7161 92.9221 39.5854C92.803 39.4548 92.7122 39.3006 92.6556 39.1329C92.5991 38.9651 92.5779 38.7874 92.5935 38.611V18.389Z" fill="#283645"/>
<path d="M101.674 18.419C101.682 18.0891 101.816 17.775 102.05 17.5426C102.283 17.3102 102.597 17.1776 102.926 17.1725H103.273C103.532 17.1778 103.784 17.2482 104.008 17.3771C104.232 17.5061 104.42 17.6894 104.555 17.9104L118.156 35.3104V18.3591C118.156 18.0312 118.286 17.7167 118.517 17.4848C118.748 17.2529 119.061 17.1227 119.388 17.1227C119.715 17.1227 120.028 17.2529 120.259 17.4848C120.49 17.7167 120.62 18.0312 120.62 18.3591V38.6508C120.625 38.8051 120.599 38.9589 120.544 39.1028C120.488 39.2467 120.403 39.3777 120.296 39.4878C120.188 39.5979 120.059 39.6848 119.916 39.7432C119.774 39.8016 119.621 39.8303 119.467 39.8275H119.338C119.074 39.8092 118.818 39.7294 118.591 39.5944C118.363 39.4593 118.17 39.2728 118.027 39.0497L104.118 21.2408V38.6508C104.116 38.9722 103.991 39.2805 103.769 39.5124C103.547 39.7442 103.246 39.882 102.926 39.8973C102.601 39.892 102.291 39.7581 102.064 39.5246C101.837 39.2911 101.711 38.9771 101.714 38.6508V18.419H101.674Z" fill="#283645"/>
<path d="M126.938 18.389C126.923 18.2126 126.944 18.0349 127.001 17.8671C127.057 17.6994 127.148 17.5452 127.267 17.4146C127.386 17.2839 127.531 17.1796 127.693 17.1082C127.854 17.0369 128.029 17 128.205 17C128.382 17 128.556 17.0369 128.718 17.1082C128.879 17.1796 129.024 17.2839 129.143 17.4146C129.262 17.5452 129.353 17.6994 129.41 17.8671C129.466 18.0349 129.487 18.2126 129.472 18.389V30.6837L142.228 17.5514C142.49 17.2797 142.845 17.1191 143.222 17.1027C143.547 17.1155 143.855 17.2528 144.082 17.4865C144.309 17.7202 144.439 18.0325 144.444 18.3591C144.437 18.529 144.396 18.6957 144.325 18.8498C144.253 19.0038 144.152 19.1421 144.026 19.2565L136.078 27.1539L144.652 37.6836C144.876 37.9441 145 38.2768 145 38.6209C144.996 38.7933 144.958 38.9633 144.889 39.121C144.819 39.2786 144.719 39.4209 144.594 39.5395C144.47 39.6582 144.323 39.7509 144.162 39.8123C144.002 39.8737 143.831 39.9026 143.659 39.8973C143.459 39.8891 143.264 39.8322 143.091 39.7314C142.918 39.6306 142.772 39.4891 142.665 39.3189L134.3 28.859L129.472 33.7051V38.591C129.472 38.7573 129.439 38.922 129.376 39.0756C129.312 39.2293 129.219 39.3689 129.102 39.4865C128.985 39.6041 128.846 39.6973 128.693 39.761C128.54 39.8246 128.376 39.8574 128.21 39.8574C128.044 39.8574 127.88 39.8246 127.727 39.761C127.574 39.6973 127.435 39.6041 127.318 39.4865C127.201 39.3689 127.108 39.2293 127.044 39.0756C126.981 38.922 126.948 38.7573 126.948 38.591V18.389H126.938Z" fill="#283645"/>
</svg>

<svg width="145" height="40" viewBox="0 0 145 40" fill="none" xmlns="http://www.w3.org/2000/svg"><path fill-rule="evenodd" clip-rule="evenodd" d="m53.9 6.59 5.03 21.14a1.42 1.42 0 0 1-.75 1.72c-.2.09-.43.13-.65.11h-4.01a11.63 11.63 0 0 1-11.49 10.32c-5.92 0-10.8-4.5-11.49-10.32h-1.96A11.75 11.75 0 0 1 16.97 40c-6 0-10.94-4.57-11.61-10.47H1.45A1.36 1.36 0 0 1 .3 29a1.42 1.42 0 0 1-.24-1.27L5.1 6.6C5.46 4.26 7.64 0 13.5 0c.38 0 .76.16 1.03.44a1.5 1.5 0 0 1 0 2.1c-.27.27-.65.43-1.03.43-4.71 0-5.44 3.7-5.5 4.1L3.34 26.6h2.03a11.75 11.75 0 0 1 11.6-10.3c5.94 0 10.84 4.48 11.6 10.3h1.99a11.63 11.63 0 0 1 11.47-10.19c5.89 0 10.75 4.46 11.48 10.23v-.06h2.14L51 7.08c-.07-.41-.77-4.1-5.5-4.1-.39 0-.76-.17-1.03-.44a1.5 1.5 0 0 1 0-2.1c.27-.28.64-.44 1.03-.44 5.85 0 8.03 4.26 8.38 6.59ZM25.66 29.56a9.12 9.12 0 0 0-.02-2.97 8.85 8.85 0 0 0-8.68-7.38 8.85 8.85 0 0 0-8.82 8.94 8.85 8.85 0 0 0 8.81 8.94c4.4 0 8.04-3.26 8.71-7.53Zm24.94 0a8.75 8.75 0 0 0-8.58-10.23 8.75 8.75 0 0 0-8.58 10.23 8.73 8.73 0 0 0 8.58 7.4c4.33 0 7.91-3.2 8.58-7.4Z" fill="#D22856"/><path d="M71 18.55a1.29 1.29 0 0 1 1.26-1.29h7.13c5.06 0 8.39 2.7 8.39 7.13v.06c0 4.85-4.04 7.36-8.8 7.36h-5.44v6.8A1.28 1.28 0 0 1 72.27 40 1.27 1.27 0 0 1 71 38.61V18.55Zm8.07 10.97c3.7 0 6.14-2 6.14-4.99v-.06c0-3.2-2.4-4.87-5.96-4.87H73.6v9.88l5.48.04ZM92.6 18.39A1.28 1.28 0 0 1 93.85 17a1.27 1.27 0 0 1 1.27 1.39V38.6A1.28 1.28 0 0 1 93.86 40a1.27 1.27 0 0 1-1.27-1.39V18.4ZM101.67 18.42a1.28 1.28 0 0 1 1.26-1.25h.34a1.53 1.53 0 0 1 1.29.74l13.6 17.4V18.36a1.24 1.24 0 0 1 1.23-1.24 1.23 1.23 0 0 1 1.23 1.24v20.3a1.16 1.16 0 0 1-.32.83 1.13 1.13 0 0 1-.83.34h-.13a1.69 1.69 0 0 1-1.31-.78l-13.91-17.8v17.4a1.26 1.26 0 0 1-1.2 1.25 1.23 1.23 0 0 1-1.2-1.25V18.42h-.05ZM126.94 18.39A1.28 1.28 0 0 1 128.2 17a1.27 1.27 0 0 1 1.26 1.39v12.3l12.76-13.14c.26-.27.62-.43 1-.45a1.27 1.27 0 0 1 1.21 1.26 1.3 1.3 0 0 1-.41.9l-7.95 7.9 8.57 10.52c.23.26.35.6.35.94a1.33 1.33 0 0 1-.4.92 1.29 1.29 0 0 1-.94.36 1.23 1.23 0 0 1-1-.58l-8.36-10.46-4.83 4.85v4.88a1.28 1.28 0 0 1-.78 1.17 1.26 1.26 0 0 1-1.74-1.17V18.4h-.01Z" fill="#283645"/></svg>
